X:0244
T:Stumpie.
M:C|
L:1/8
Q:1/2=92
I: :: ::
Z:Jack Campin * www.campin.me.uk * 2009
K:G
c|Bdg2    (ag/f/) g2| Bd      g2     a(AA)c|\
  Bdg2 {b}(ag/f/) g2| B/c/d   A/B/c  BGG  :|
c|BcdB     cdec     | BcdB           c(AA)c|\
  BcdB     cdec     |(B/c/d) (A/B/c) BGG  :|
<end>
<start>
